assets/azureservicehealth/original.svg

<svg height="18" viewBox="0 0 18 18" width="18" xmlns="http://www.w3.org/2000/svg" xmlns:xlink="http://www.w3.org/1999/xlink"><linearGradient id="a" gradientUnits="userSpaceOnUse" x1="8.66" x2="8.66" y1="17.12" y2="1.03"><stop offset="0" stop-color="#1988d9"/><stop offset=".22" stop-color="#218ddc"/><stop offset=".56" stop-color="#379ce5"/><stop offset=".9" stop-color="#54aef0"/></linearGradient><path d="m8.66 17.12c8.18-5.86 8.46-9.28 8.49-10.35.05-1.5-.15-5.41-4.15-5.72a4.26 4.26 0 0 0 -4.34 2.85 4.28 4.28 0 0 0 -4.39-2.85c-3.95.31-4.16 4.22-4.11 5.72 0 1.07.32 4.49 8.5 10.35" fill="url(#a)"/><path d="m17.15 6.77c.05-1.5-.15-5.41-4.15-5.72a4.26 4.26 0 0 0 -4.34 2.85 4.28 4.28 0 0 0 -4.39-2.85c-3.95.31-4.16 4.22-4.11 5.72 0 1.07.24 4.44 8.43 10.3" fill="none"/><path d="m17.15 6.18h-4a.17.17 0 0 0 -.13.07l-1.21 2.09a.16.16 0 0 1 -.27 0l-1.73-3.29a.31.31 0 0 0 -.56 0l-1.66 4.95a.16.16 0 0 1 -.29 0l-1.42-3.29a.31.31 0 0 0 -.55 0l-1.94 3.49a.16.16 0 0 1 -.13.08h-1.84a13 13 0 0 0 .9 1.22h1.68a.13.13 0 0 0 .13-.08l1.21-2.23a.16.16 0 0 1 .28 0l1.66 3.86a.31.31 0 0 0 .58 0l1.75-5.2a.15.15 0 0 1 .28 0l1.46 2.77a.3.3 0 0 0 .53 0l1.86-3.13a.16.16 0 0 1 .13-.08h3.23" fill="#fff"/></svg>

<svg xmlns="http://www.w3.org/2000/svg" width="18" height="18" viewBox="0 0 18 18"><linearGradient id="a" x1="8.66" x2="8.66" y1="17.12" y2="1.03" gradientUnits="userSpaceOnUse"><stop offset="0" stop-color="#1988d9"/><stop offset=".22" stop-color="#218ddc"/><stop offset=".56" stop-color="#379ce5"/><stop offset=".9" stop-color="#54aef0"/></linearGradient><path fill="url(#a)" d="M8.66 17.12c8.18-5.86 8.46-9.28 8.49-10.35.05-1.5-.15-5.41-4.15-5.72A4.26 4.26 0 0 0 8.66 3.9a4.28 4.28 0 0 0-4.39-2.85C.32 1.36.11 5.27.16 6.77c0 1.07.32 4.49 8.5 10.35"/><path fill="none" d="M17.15 6.77C17.2 5.27 17 1.36 13 1.05A4.26 4.26 0 0 0 8.66 3.9a4.28 4.28 0 0 0-4.39-2.85C.32 1.36.11 5.27.16 6.77c0 1.07.24 4.44 8.43 10.3"/><path fill="#fff" d="M17.15 6.18h-4a.17.17 0 0 0-.13.07l-1.21 2.09a.16.16 0 0 1-.27 0L9.81 5.05a.31.31 0 0 0-.56 0L7.59 10a.16.16 0 0 1-.29 0L5.88 6.71a.31.31 0 0 0-.55 0L3.39 10.2a.16.16 0 0 1-.13.08H1.42a13 13 0 0 0 .9 1.22H4a.13.13 0 0 0 .13-.08l1.21-2.23a.16.16 0 0 1 .28 0l1.66 3.86a.31.31 0 0 0 .58 0l1.75-5.2a.15.15 0 0 1 .28 0l1.46 2.77a.3.3 0 0 0 .53 0l1.86-3.13a.16.16 0 0 1 .13-.08h3.23"/></svg>
